!!!!SEGMENT: pl-stab--77a--004_wygrzywalski-jozef--msza-sanctus.krn
!!!cenid: 18xx:3414
!!!COM: Wygrzywalski, Józef
!!!COM-rismid: pe30109448
!!!CDT:
!!!CNT:
!!!OPR: Msza
!!!OTL: Sanctus
!!!OMV: 004
!!!PDT:
!!!AGN:
!!!SMS-siglum: PL-STAb
!!!SMS-shelfmark: 77a
!!!SMS-shelfwork: M
!!!SMS-variant:
!!!SMS-altvar:
!!!NIFC-rismid: 1001167521
!!!URL-scan: https://repozytorium.nifc.pl/islandora/object/pl-stab%3A4717/datastream/PDF/view
!!!ONB-nifc: UWAGA: części Mszy: 1. Kyrie, 2. Gloria, 3. Credo, 4. Sanctus, 5. Benedictus, 6. Agnus Dei. Na f. 1r głosu cl 2 zapisana partytura org dla części Gloria, pochodzącej z innej mszy.
!!!key: F
**kern	**fba	**dynam	**kern	**dynam	**kern	**kern	**text	**dynam	**kern	**kern	**text	**dynam	**kern	**text	**text	**kern	**dynam	**kern	**dynam	**kern	**dynam	**kern	**dynam
*part11	*part11	*part11	*part10	*part10	*part9	*part8	*part8	*part8	*part7	*part6	*part6	*part6	*part5	*part5	*part5	*part4	*part4	*part3	*part3	*part2	*part2	*part1	*part1
*staff11	*	*	*staff10	*	*staff9	*staff8	*staff8	*	*staff7	*staff6	*staff6	*	*staff5	*staff5	*staff5	*staff4	*	*staff3	*	*staff2	*	*staff1	*
*	*	*	*group4	*	*group4	*group3	*	*	*group3	*group3	*	*	*group3	*	*	*group2	*	*group2	*	*group1	*	*group1	*
*I"Organo	*	*	*I"Violino II	*	*I"Violino primo	*I"Baſso	*	*	*I"Tenor	*I"Alto	*	*	*I"Canto	*	*	*I"Corno 2do in F	*	*I"Corno 1mo in F	*	*I"Clarinetto 2	*	*I"Clarinetto 1mo in C	*
*I'org	*	*	*I'vl 2	*	*I'vl 1	*I'B	*	*	*I'T	*I'A	*	*	*I'S	*	*	*I'cor in F 2	*	*I'cor in F 1	*	*I'cl 2	*	*I'cl in C 1	*
*Iorgan	*	*	*Ivioln	*	*Ivioln	*Ibass	*	*	*Itenor	*Ialto	*	*	*Isoprn	*	*	*Icor	*	*Icor	*	*Iclars	*	*Iclars	*
*ICklav	*	*	*ICstr	*	*ICstr	*ICvox	*	*	*ICvox	*ICvox	*	*	*ICvox	*	*	*ICbras	*	*ICbras	*	*ICww	*	*ICww	*
*IGcont	*	*	*IGacmp	*	*IGacmp	*IGcoro	*	*	*IGcoro	*IGcoro	*	*	*IGcoro	*	*	*IGacmp	*	*IGacmp	*	*IGacmp	*	*IGacmp	*
*clefF4	*	*	*clefG2	*	*clefG2	*clefF4	*	*	*	*clefC3	*	*	*clefC1	*	*	*clefG2	*	*clefG2	*	*clefG2	*	*clefG2	*
*	*	*	*	*	*	*	*	*	*	*	*	*	*	*	*	*ITrd4c7	*	*ITrd4c7	*	*	*	*	*
*k[b-]	*	*	*k[b-]	*	*k[b-]	*k[b-]	*	*	*	*k[b-]	*	*	*k[b-]	*	*	*k[b-]	*	*k[b-]	*	*k[b-]	*	*k[b-]	*
*B-:	*	*	*B-:	*	*B-:	*B-:	*	*	*	*B-:	*	*	*B-:	*	*	*B-:	*	*B-:	*	*B-:	*	*B-:	*
*M3/4	*	*	*M3/4	*	*M3/4	*M3/4	*	*	*	*M3/4	*	*	*M3/4	*	*	*M3/4	*	*M3/4	*	*M3/4	*	*M3/4	*
=1	=1	=1	=1	=1	=1	=1	=1	=1	=1	=1	=1	=1	=1	=1	=1	=1	=1	=1	=1	=1	=1	=1	=1
*	*	*	*	*	*	*2\right	*	*	*	*	*	*	*	*	*	*	*	*2\right	*	*	*	*	*
!	!	!	!LO:TX:b:i:t=dol	!	!	!	!	!	!	!	!	!	!	!	!	!	!	!	!	!LO:TX:a:B:t=Andante	!	!LO:TX:a:t=1	!
!LO:TX:a:B:t=Andante	!	!	!LO:TX:a:B:t=Andante	!	!LO:TX:t=P:problem:źródło niekompletne, brak taktów nr 1-14	!LO:TX:a:B:t=Andante	!	!	!LO:TX:t=P:problem:zgodnie z RISM "Partia T zaginęła"	!LO:TX:a:B:t=Andante	!	!LO:DY:b	!LO:TX:a:B:t=Andante	!	!	!LO:TX:a:B:t=Adagio	!LO:DY:rj	!LO:TX:a:B:t=Adagio	!	!LO:TX:a:t=1	!	!LO:TX:a:B:t=Andante	!
4F\	8 6	pp	(4dd\	.	2.ryy	2F\	San-	.	2.ryy	(4dd\	San-	p	(4ff\	San-	.	2.F/	pp	2.f\	pp	2.r	.	2.r	.
4F\	7 4	.	4cc\)	.	.	.	.	.	.	4cc\)	.	.	4ee\)	.	.	.	.	.	.	.	.	.	.
4F\	6 4	.	4b-'\	.	.	4F\	-ctus	.	.	4b-\	-ctus	.	4dd\	-ctus	.	.	.	.	.	.	.	.	.
=2	=2	=2	=2	=2	=2	=2	=2	=2	=2	=2	=2	=2	=2	=2	=2	=2	=2	=2	=2	=2	=2	=2	=2
*	*	*	*	*	*	*	*ij	*	*	*	*ij	*	*	*ij	*	*	*	*	*	*	*	*	*
4F\	+4r +2r	.	8.g#X/L	.	2.ryy	4F\	San-	.	2.ryy	4g#X\	San-	.	4bn\	San-	.	2.F/	.	2.f\	.	4g#X^/	.	4bn^\	p
.	.	.	16a/Jk	.	.	.	.	.	.	.	.	.	.	.	.	.	.	.	.	.	.	.	.
4F\	.	.	8f/	.	.	4F\	-ctus	.	.	4a\	-ctus	.	4cc\	-ctus	.	.	.	.	.	4a/	.	4cc\	.
.	.	.	8r	.	.	.	.	.	.	.	.	.	.	.	.	.	.	.	.	.	.	.	.
4r	.	.	4r	.	.	4r	.	.	.	4r	.	.	4r	.	.	.	.	.	.	4r	.	4r	.
=3	=3	=3	=3	=3	=3	=3	=3	=3	=3	=3	=3	=3	=3	=3	=3	=3	=3	=3	=3	=3	=3	=3	=3
!	!	!	!	!	!	!	!	!	!	!	!	!	!	!	!	!	!	!	!	!LO:TX:a:t=1	!	!LO:TX:a:t=1	!
4F\	6 4	.	(4b-\	.	2.ryy	2F\	San-	.	2.ryy	4b-\	San-	.	4dd\	San-	.	2.F/	.	2.f\	.	2.r	.	2.r	.
4F\	5 5	.	4a\)	.	.	.	.	.	.	4a\	.	.	4cc\	.	.	.	.	.	.	.	.	.	.
4F\	4 2	.	4g'\	.	.	4F\	-ctus	.	.	4g\	-ctus	.	4b-\	-ctus	.	.	.	.	.	.	.	.	.
=4	=4	=4	=4	=4	=4	=4	=4	=4	=4	=4	=4	=4	=4	=4	=4	=4	=4	=4	=4	=4	=4	=4	=4
!	!	!	!	!	!	!	!	!	!	!LO:N:acc=#	!	!	!	!	!	!	!	!	!	!	!	!	!
4F\	#2	.	8.Bn/L	.	2.ryy	4F\	San-	.	2.ryy	4Bn/	San-	.	4g#X\	San-	.	2.F/	.	2.f\	.	4Bn/	.	4g#X/	.
.	.	.	16c/Jk	.	.	.	.	.	.	.	.	.	.	.	.	.	.	.	.	.	.	.	.
4F\	3	.	4A/	.	.	4F\	-ctus	.	.	4c/	-ctus	.	4a\	-ctus	.	.	.	.	.	4c/	.	4a/	.
*	*	*	*	*	*	*	*Xij	*	*	*	*Xij	*	*	*Xij	*	*	*	*	*	*	*	*	*
4r	.	.	4r	.	.	4r	.	.	.	4r	.	.	4r	.	.	.	.	.	.	4r	.	4r	.
=5	=5	=5	=5	=5	=5	=5	=5	=5	=5	=5	=5	=5	=5	=5	=5	=5	=5	=5	=5	=5	=5	=5	=5
!	!	!	!	!	!	!	!	!LO:DY:b	!	!	!	!	!	!	!	!LO:TX:a:t=2	!	!	!	!LO:TX:a:t=2	!	!LO:TX:a:t=2	!
4d\	6 3_	.	4f/	.	2.ryy	8.d\	Do-	pp	2.ryy	8.f\	Do-	.	8.b-\	Do-	.	1.r	.	2.f\	.	2.r	.	1.r	.
.	.	.	.	.	.	16d\	-mi-	.	.	16f\	-mi-	.	16b-\	-mi-	.	.	.	.	.	.	.	.	.
4c\	6 _	.	8f/	.	.	4c\	-nus	.	.	4f\	-nus	.	4a\	-nus	.	.	.	.	.	.	.	.	.
.	.	.	8r	.	.	.	.	.	.	.	.	.	.	.	.	.	.	.	.	.	.	.	.
4r	.	.	4r	.	.	4r	.	.	.	4r	.	.	4r	.	.	.	.	.	.	.	.	.	.
=6	=6	=6	=6	=6	=6	=6	=6	=6	=6	=6	=6	=6	=6	=6	=6	=6	=6	=6	=6	=6	=6	=6	=6
4B-\	10 _	.	8.f/L	.	2.ryy	4B-\	De-	.	2.ryy	4f\	De-	.	4dd\	de-	.	.	.	2.f\	.	2.r	.	.	.
.	.	.	16f/Jk	.	.	.	.	.	.	.	.	.	.	.	.	.	.	.	.	.	.	.	.
4A\	10 _	.	8f/	.	.	4A\	-us	.	.	4f\	-us	.	4cc\	-us	.	.	.	.	.	.	.	.	.
.	.	.	8r	.	.	.	.	.	.	.	.	.	.	.	.	.	.	.	.	.	.	.	.
4r	x	.	4r	.	.	4r	.	.	.	4r	.	.	4r	.	.	.	.	.	.	.	.	.	.
!LO:LB:g=original	!	!	!LO:LB:g=original	!	!	!	!	!	!	!LO:LB:g=original	!	!	!	!	!	!	!	!	!	!	!	!	!
=7	=7	=7	=7	=7	=7	=7	=7	=7	=7	=7	=7	=7	=7	=7	=7	=7	=7	=7	=7	=7	=7	=7	=7
*	*	*	*2\right	*	*	*	*	*	*	*	*	*	*	*	*	*	*	*	*	*	*	*	*
*	*	*	*tremolo	*	*	*	*	*	*	*2\right	*	*	*2\right	*	*	*	*	*	*	*2\right	*	*2\right	*
!	!	!LO:DY:t=ſf:rj	!	!	!	!	!	!	!	!	!	!LO:DY:b	!	!	!	!	!LO:DY:t=ſf:rj	!	!LO:DY:t=ſf	!	!LO:DY:t=ſf	!	!LO:DY:t=ſf
8A-X\L	6_ 4_	ff	32ffLLL 32dd\	fff	2.ryy	2.A-X\	Sa-	.	2.ryy	2.bn\	Sa-	ff	2.dd\	Sa-	.	2.F/	ff	2.f/	ff	2.bn\	ff	2.dd\	ff
.	.	.	32ff 32dd\	.	.	.	.	.	.	.	.	.	.	.	.	.	.	.	.	.	.	.	.
.	.	.	32ff 32dd\	.	.	.	.	.	.	.	.	.	.	.	.	.	.	.	.	.	.	.	.
.	.	.	32ff 32dd\	.	.	.	.	.	.	.	.	.	.	.	.	.	.	.	.	.	.	.	.
(32A-\LL	.	.	32ff 32dd\	.	.	.	.	.	.	.	.	.	.	.	.	.	.	.	.	.	.	.	.
32G\	.	.	32ff 32dd\	.	.	.	.	.	.	.	.	.	.	.	.	.	.	.	.	.	.	.	.
32F\	.	.	32ff 32dd\	.	.	.	.	.	.	.	.	.	.	.	.	.	.	.	.	.	.	.	.
32E-X\JJJ)	.	.	32ff 32dd\	.	.	.	.	.	.	.	.	.	.	.	.	.	.	.	.	.	.	.	.
4D\	.	.	32ff 32dd\	.	.	.	.	.	.	.	.	.	.	.	.	.	.	.	.	.	.	.	.
.	.	.	32ff 32dd\	.	.	.	.	.	.	.	.	.	.	.	.	.	.	.	.	.	.	.	.
.	.	.	32ff 32dd\	.	.	.	.	.	.	.	.	.	.	.	.	.	.	.	.	.	.	.	.
.	.	.	32ff 32dd\	.	.	.	.	.	.	.	.	.	.	.	.	.	.	.	.	.	.	.	.
.	.	.	32ff 32dd\	.	.	.	.	.	.	.	.	.	.	.	.	.	.	.	.	.	.	.	.
.	.	.	32ff 32dd\	.	.	.	.	.	.	.	.	.	.	.	.	.	.	.	.	.	.	.	.
.	.	.	32ff 32dd\	.	.	.	.	.	.	.	.	.	.	.	.	.	.	.	.	.	.	.	.
.	.	.	32ff 32dd\	.	.	.	.	.	.	.	.	.	.	.	.	.	.	.	.	.	.	.	.
4r	x	.	32ff 32dd\	.	.	.	.	.	.	.	.	.	.	.	.	.	.	.	.	.	.	.	.
.	.	.	32ff 32dd\	.	.	.	.	.	.	.	.	.	.	.	.	.	.	.	.	.	.	.	.
.	.	.	32ff 32dd\	.	.	.	.	.	.	.	.	.	.	.	.	.	.	.	.	.	.	.	.
.	.	.	32ff 32dd\	.	.	.	.	.	.	.	.	.	.	.	.	.	.	.	.	.	.	.	.
.	.	.	32ff 32dd\	.	.	.	.	.	.	.	.	.	.	.	.	.	.	.	.	.	.	.	.
.	.	.	32ff 32dd\	.	.	.	.	.	.	.	.	.	.	.	.	.	.	.	.	.	.	.	.
.	.	.	32ff 32dd\	.	.	.	.	.	.	.	.	.	.	.	.	.	.	.	.	.	.	.	.
.	.	.	32ffJJJ 32dd\	.	.	.	.	.	.	.	.	.	.	.	.	.	.	.	.	.	.	.	.
!	!	!	!	!	!	!LO:LB:g=original	!	!	!	!	!	!	!	!	!	!	!	!	!	!	!	!	!
=8	=8	=8	=8	=8	=8	=8	=8	=8	=8	=8	=8	=8	=8	=8	=8	=8	=8	=8	=8	=8	=8	=8	=8
!	!	!	!	!	!	!	!	!	!	!	!	!	!	!	!	!	!	!	!	!	!LO:DY:t=ſf	!	!
8F\L	6_ n4_	.	32aa-XLLL 32bn\	ffff	2.ryy	2.D\	-ba-	.	2.ryy	2.dd\	-ba-	.	2.ff\	-ba-	.	2.F/	.	2.f/	.	2.dd\	ff	2.aa-X\	ff
.	.	.	32aa- 32b\	.	.	.	.	.	.	.	.	.	.	.	.	.	.	.	.	.	.	.	.
.	.	.	32aa- 32b\	.	.	.	.	.	.	.	.	.	.	.	.	.	.	.	.	.	.	.	.
.	.	.	32aa- 32b\	.	.	.	.	.	.	.	.	.	.	.	.	.	.	.	.	.	.	.	.
32F\LL	.	.	32aa- 32b\	.	.	.	.	.	.	.	.	.	.	.	.	.	.	.	.	.	.	.	.
32E-X\	.	.	32aa- 32b\	.	.	.	.	.	.	.	.	.	.	.	.	.	.	.	.	.	.	.	.
32D\	.	.	32aa- 32b\	.	.	.	.	.	.	.	.	.	.	.	.	.	.	.	.	.	.	.	.
32C\JJJ	.	.	32aa- 32b\	.	.	.	.	.	.	.	.	.	.	.	.	.	.	.	.	.	.	.	.
4BBn/	.	.	32aa- 32b\	.	.	.	.	.	.	.	.	.	.	.	.	.	.	.	.	.	.	.	.
.	.	.	32aa- 32b\	.	.	.	.	.	.	.	.	.	.	.	.	.	.	.	.	.	.	.	.
.	.	.	32aa- 32b\	.	.	.	.	.	.	.	.	.	.	.	.	.	.	.	.	.	.	.	.
.	.	.	32aa- 32b\	.	.	.	.	.	.	.	.	.	.	.	.	.	.	.	.	.	.	.	.
.	.	.	32aa- 32b\	.	.	.	.	.	.	.	.	.	.	.	.	.	.	.	.	.	.	.	.
.	.	.	32aa- 32b\	.	.	.	.	.	.	.	.	.	.	.	.	.	.	.	.	.	.	.	.
.	.	.	32aa- 32b\	.	.	.	.	.	.	.	.	.	.	.	.	.	.	.	.	.	.	.	.
.	.	.	32aa- 32b\	.	.	.	.	.	.	.	.	.	.	.	.	.	.	.	.	.	.	.	.
4r	x	.	32aa- 32b\	.	.	.	.	.	.	.	.	.	.	.	.	.	.	.	.	.	.	.	.
.	.	.	32aa- 32b\	.	.	.	.	.	.	.	.	.	.	.	.	.	.	.	.	.	.	.	.
.	.	.	32aa- 32b\	.	.	.	.	.	.	.	.	.	.	.	.	.	.	.	.	.	.	.	.
.	.	.	32aa- 32b\	.	.	.	.	.	.	.	.	.	.	.	.	.	.	.	.	.	.	.	.
.	.	.	32aa- 32b\	.	.	.	.	.	.	.	.	.	.	.	.	.	.	.	.	.	.	.	.
.	.	.	32aa- 32b\	.	.	.	.	.	.	.	.	.	.	.	.	.	.	.	.	.	.	.	.
.	.	.	32aa- 32b\	.	.	.	.	.	.	.	.	.	.	.	.	.	.	.	.	.	.	.	.
.	.	.	32aa-JJJ 32b\	.	.	.	.	.	.	.	.	.	.	.	.	.	.	.	.	.	.	.	.
*	*	*	*Xtremolo	*	*	*	*	*	*	*	*	*	*	*	*	*	*	*	*	*	*	*	*
=9	=9	=9	=9	=9	=9	=9	=9	=9	=9	=9	=9	=9	=9	=9	=9	=9	=9	=9	=9	=9	=9	=9	=9
!	!	!	!LO:TX:t=P:problem:mixed beam	!	!	!	!	!	!	!	!	!	!	!	!	!	!	!	!	!LO:TX:t=P:problem:mixed beam	!	!	!
8.C/L	3	.	8.gg\L	.	2.ryy	4C/	-oth	.	2.ryy	4cc\	-oth	.	4ee\	-oth	.	8.c/L	.	8.g\L	.	8.ee\L	.	8.gg\L	.
16C/Jk	.	.	16G/Jk	.	.	.	.	.	.	.	.	.	.	.	.	16c/Jk	.	16g\Jk	.	16e/Jk	.	16cc\Jk	.
4C/	.	.	4G/	.	.	4r	.	.	.	4r	.	.	4r	.	.	4c/	.	4g\	.	4e/	.	4cc\	.
4r	.	.	4r	.	.	4r	.	.	.	4r	.	.	4r	.	.	4r	.	4r	.	4r	.	4r	.
=10	=10	=10	=10	=10	=10	=10	=10	=10	=10	=10	=10	=10	=10	=10	=10	=10	=10	=10	=10	=10	=10	=10	=10
!	!	!	!	!	!	!	!	!	!	!	!	!	!	!	!	!	!	!LO:TX:b:t=4	!	!	!	!	!
!LO:TX:a:t=1	!	!	!LO:TX:a:t=1	!	!	!LO:TX:a:t=4	!	!	!	!LO:TX:a:t=4	!	!	!LO:TX:a:t=4	!	!	!LO:TX:a:t=4	!	!LO:TX:a:t=4	!	!LO:TX:a:t=4	!	!LO:TX:a:t=4	!
2.r	.	.	2.r	.	2.ryy	0.r	.	.	2.ryy	0.r	.	.	0.r	.	.	0.r	.	0.r	.	0.r	.	0.r	.
=11	=11	=11	=11	=11	=11	=11	=11	=11	=11	=11	=11	=11	=11	=11	=11	=11	=11	=11	=11	=11	=11	=11	=11
4r	.	.	4r	.	2.ryy	.	.	.	2.ryy	.	.	.	.	.	.	.	.	.	.	.	.	.	.
8r	.	p	8r	p	.	.	.	.	.	.	.	.	.	.	.	.	.	.	.	.	.	.	.
8C/	.	.	8e 8G/	.	.	.	.	.	.	.	.	.	.	.	.	.	.	.	.	.	.	.	.
4C/	.	.	4e 4G/	.	.	.	.	.	.	.	.	.	.	.	.	.	.	.	.	.	.	.	.
=12	=12	=12	=12	=12	=12	=12	=12	=12	=12	=12	=12	=12	=12	=12	=12	=12	=12	=12	=12	=12	=12	=12	=12
4r	.	.	4r	.	2.ryy	.	.	.	2.ryy	.	.	.	.	.	.	.	.	.	.	.	.	.	.
8r	.	.	8r	.	.	.	.	.	.	.	.	.	.	.	.	.	.	.	.	.	.	.	.
8C/	.	.	8e 8G/	.	.	.	.	.	.	.	.	.	.	.	.	.	.	.	.	.	.	.	.
4C/	.	.	4e 4G/	.	.	.	.	.	.	.	.	.	.	.	.	.	.	.	.	.	.	.	.
=13	=13	=13	=13	=13	=13	=13	=13	=13	=13	=13	=13	=13	=13	=13	=13	=13	=13	=13	=13	=13	=13	=13	=13
!LO:TX:a:t=1	!	!	!LO:TX:a:t=1	!	!	!	!	!	!	!	!	!	!	!	!	!	!	!	!	!	!	!	!
2.r	.	.	2.r	.	2.ryy	.	.	.	2.ryy	.	.	.	.	.	.	.	.	.	.	.	.	.	.
!	!	!	!	!	!	!	!	!	!	!	!	!	!	!	!	!	!	!	!	!	!	!LO:LB:g=original	!
=14	=14	=14	=14	=14	=14	=14	=14	=14	=14	=14	=14	=14	=14	=14	=14	=14	=14	=14	=14	=14	=14	=14	=14
!	!	!	!LO:N:vis=2	!	!	!LO:TX:t=P:problem:brak taktu nr 14	!	!	!	!LO:TX:t=P:problem:brak taktu nr 14	!	!	!LO:TX:t=P:problem:brak taktu nr 14	!	!	!LO:TX:t=P:problem:brak taktu nr 14	!	!LO:TX:t=P:problem:brak taktu nr 14	!	!LO:N:vis=2	!	!	!
!	!	!	!	!	!	!LO:TX:t=P:problem:fermata na kresce taktowej	!	!	!	!LO:TX:t=P:problem:fermata na kresce taktowej	!	!	!LO:TX:t=P:problem:fermata na kresce taktowej	!	!	!LO:TX:t=P:problem:fermata na kresce taktowej	!	!LO:TX:t=P:problem:fermata above/below na kresce taktowej	!	!	!	!	!
2.C;/	7 5	.	2.e 2.c;/	.	2.ryy	2.ryy	.	.	2.ryy	2.ryy	.	.	2.ryy	.	.	2.ryy	.	2.ryy	.	2.E;/	.	2.B-X;/	.
!LO:LB:g=original	!	!	!LO:LB:g=original	!	!	!	!	!	!	!	!	!	!LO:LB:g=original	!	!	!	!	!	!	!LO:LB:g=original	!	!	!
=15||	=15||	=15||	=15||	=15||	=15||	=15||	=15||	=15||	=15||	=15||	=15||	=15||	=15||	=15||	=15||	=15||	=15||	=15||	=15||	=15||	=15||	=15||	=15||
*k[b-]	*	*	*k[b-]	*	*k[b-]	*	*	*	*	*	*	*	*	*	*	*	*	*	*	*k[b-]	*	*k[b-]	*
*M2/4	*	*	*M2/4	*	*M2/4	*M2/4	*	*	*	*M2/4	*	*	*M2/4	*	*	*M2/4	*	*M2/4	*	*M2/4	*	*M2/4	*
!	!	!	!	!	!	!LO:TX:a:B:t=Allo	!	!	!	!	!	!	!	!	!	!	!	!	!	!	!	!	!
!LO:TX:a:B:t=Allo	!	!	!	!	!LO:TX:a:B:t=Allo	!LO:TX:a:t=4	!	!	!	!LO:TX:a:B:t=Allo	!	!	!LO:TX:a:B:t=All°	!	!	!LO:TX:a:B:t=Allo	!LO:DY:rj	!	!	!LO:TX:a:B:t=Allo	!	!LO:TX:a:B:t=Allo	!
4C\	7_ 5_	.	8e/	p	8g\	0r	.	.	2ryy	8e\	ple-	.	8g\	ple-	.	4c/	p	4g\	.	4e/	.	4b-\	p
.	.	.	4g/	.	4b-^<\	.	.	.	.	4g\	-ni	.	4b-\	-ni	.	.	.	.	.	.	.	.	.
4C#X\	.	.	.	.	.	.	.	.	.	.	.	.	.	.	.	4r	.	4r	.	4r	.	4r	.
.	.	.	8b- 8g/	.	8ee\	.	.	.	.	8g\	sunt	.	8ee\	sunt	.	.	.	.	.	.	.	.	.
=16	=16	=16	=16	=16	=16	=16	=16	=16	=16	=16	=16	=16	=16	=16	=16	=16	=16	=16	=16	=16	=16	=16	=16
4D\	3	.	8b-/	.	8gg\	.	.	.	2ryy	8b-\	Cae-	.	8gg\	Cae-	.	2F/	.	2f\	.	4a\	.	4cc\	.
.	.	.	4f/	.	4ff\	.	.	.	.	4a\	-li	.	4ff\	-li	.	.	.	.	.	.	.	.	.
4BB-\	6 3	.	.	.	.	.	.	.	.	.	.	.	.	.	.	.	.	.	.	4b-\	.	4dd\	.
!	!	!	!	!	!LO:SIC:v:s=8dd\	!	!	!	!	!	!	!	!	!	!	!	!	!	!	!	!	!	!
.	.	.	8f/	.	8cc\	.	.	.	.	8b-\	sunt	.	8dd\	sunt	.	.	.	.	.	.	.	.	.
=17	=17	=17	=17	=17	=17	=17	=17	=17	=17	=17	=17	=17	=17	=17	=17	=17	=17	=17	=17	=17	=17	=17	=17
*	*	*	*	*	*	*	*	*	*	*	*	*	*	*	*	*2\right	*	*	*	*	*	*	*
4C\	6 4	.	8f/	.	8dd\	.	.	.	2ryy	8b-\	Cae-	.	8dd\	Cae-	.	2f\	.	2a\	.	2a/	.	2cc\	.
.	.	.	4f/	.	4cc\	.	.	.	.	4a\	-li	.	4cc\	-li	.	.	.	.	.	.	.	.	.
4C\	.	.	.	.	.	.	.	.	.	.	.	.	.	.	.	.	.	.	.	.	.	.	.
.	.	.	8f/	.	8a\	.	.	.	.	8f\	et	.	8a\	et	.	.	.	.	.	.	.	.	.
=18	=18	=18	=18	=18	=18	=18	=18	=18	=18	=18	=18	=18	=18	=18	=18	=18	=18	=18	=18	=18	=18	=18	=18
4DD/	5 3	.	8e/	.	8cc\	.	.	.	2ryy	(8a\	ter-	.	(8cc\	ter-	.	2c/	.	2g\	.	2e/	.	2b-\	.
.	.	.	4e/	.	4b-\	.	.	.	.	4g\)	.	.	4b-\)	.	.	.	.	.	.	.	.	.	.
4DD/	.	.	.	.	.	.	.	.	.	.	.	.	.	.	.	.	.	.	.	.	.	.	.
.	.	.	8e/	.	8g\	.	.	.	.	8e\	-ra	.	8g\	-ra	.	.	.	.	.	.	.	.	.
=19	=19	=19	=19	=19	=19	=19	=19	=19	=19	=19	=19	=19	=19	=19	=19	=19	=19	=19	=19	=19	=19	=19	=19
*2\right	*	*	*	*	*	*	*	*	*	*	*	*	*	*	*	*	*	*	*	*	*	*	*
*tremolo	*	*	*	*	*	*	*	*	*	*	*	*	*	*	*	*	*	*	*	*	*	*	*
!LO:TX:b:i:t=Tasto	!	!	!	!	!	!	!	!	!	!	!	!	!	!	!	!	!	!	!	!	!	!LO:TX:a:t=P:problem:2 skreślone takty	!
8F\L	.	.	8f/L	.	8a\L	4F\	O-	.	2ryy	8f\L	glo-	.	8a\L	[[O-	glo-	2A/	.	2f\	.	8a\L	.	8ff\L	.
8F\	.	.	8g/	.	8b-\	.	.	.	.	8g\	.	.	8b-\J	.	.	.	.	.	.	8b-\	.	8gg\	.
8F\	.	.	8g#X/	.	8bn\	4F\	-san-	.	.	8g#X\	-[ria]-	.	8bn\L	-san-	.	.	.	.	.	8bn\	.	8gg#X\	.
8F\J	.	.	8a/J	.	8cc\J	.	.	.	.	8a\J	.	.	8cc\J	.	.	.	.	.	.	8cc\J	.	8aa\J	.
!	!	!	!	!	!	!	!	!	!	!LO:LB:g=original	!	!	!	!	!	!	!	!	!	!	!	!	!
=20	=20	=20	=20	=20	=20	=20	=20	=20	=20	=20	=20	=20	=20	=20	=20	=20	=20	=20	=20	=20	=20	=20	=20
*	*	*	*	*	*	*	*	*	*	*	*	*	*	*	*	*tremolo	*	*tremolo	*	*	*	*	*
8F\L	.	.	8b-\L	.	8dd\L	4F\	-na	.	2ryy	8b-\L	-ri-	.	8dd\L	-na	-ri-	8A/L	.	8f\L	.	8dd\L	.	8bb-\L	.
8F\	.	.	8a\	.	8cc\	.	.	.	.	8a\J	.	.	8cc\J	.	.	8A/	.	8f\	.	8cc\	.	8aa\	.
8F\	.	.	8g#X\	.	8bn\	4F\	in	.	.	8g#X\L	-a	.	8bn\L	in	-a	8A/	.	8f\	.	8bn\	.	8gg#X\	.
8F\J	.	.	8a\J	.	8cc\J	.	.	.	.	8a\J	.	.	8cc\J	.	.	8A/J	.	8f\J	.	8cc\J	.	8aa\J	.
*Xtremolo	*	*	*	*	*	*	*	*	*	*	*	*	*	*	*	*Xtremolo	*	*Xtremolo	*	*	*	*	*
!	!	!	!	!	!	!	!	!	!	!	!	!	!	!	!	!	!	!LO:LB:g=original	!	!	!	!	!
=21	=21	=21	=21	=21	=21	=21	=21	=21	=21	=21	=21	=21	=21	=21	=21	=21	=21	=21	=21	=21	=21	=21	=21
*	*	*	*tremolo	*	*	*	*	*	*	*	*	*	*	*	*	*	*	*	*	*	*	*	*
8C\L	3	.	16g\LL	.	8r	8C\L	ex-	.	2ryy	2g\	tu-	.	[4b-\	ex-	tu-	2c/	.	2g\	.	4ee\	.	4gg\	.
.	.	.	16g\	.	.	.	.	.	.	.	.	.	.	.	.	.	.	.	.	.	.	.	.
8D\	3	.	16g\	.	8b-\sS	8D\J	.	.	.	.	.	.	.	.	.	.	.	.	.	.	.	.	.
.	.	.	16g\JJ	.	.	.	.	.	.	.	.	.	.	.	.	.	.	.	.	.	.	.	.
8E\	3	.	16b-LL 16g\	.	8r	8E\L	-cel-	.	.	.	.	.	4b-\]	-cel-	.	.	.	.	.	4ee\	.	4bb-\	.
.	.	.	16b- 16g\	.	.	.	.	.	.	.	.	.	.	.	.	.	.	.	.	.	.	.	.
8F\J	3	.	16b- 16g\	.	8ee\sS	8F\J	.	.	.	.	.	.	.	.	.	.	.	.	.	.	.	.	.
.	.	.	16b-JJ 16g\	.	.	.	.	.	.	.	.	.	.	.	.	.	.	.	.	.	.	.	.
!	!	!	!	!	!	!	!	!	!	!	!	!	!	!	!	!LO:LB:g=original	!	!	!	!	!	!	!
=22	=22	=22	=22	=22	=22	=22	=22	=22	=22	=22	=22	=22	=22	=22	=22	=22	=22	=22	=22	=22	=22	=22	=22
*	*	*	*	*	*	*	*	*	*	*	*	*	*	*	*	*tremolo	*	*tremolo	*	*tremolo	*	*tremolo	*
8F#X\L	3	.	16ccLL 16g\	.	8r	8F#X\L	-sis	.	2ryy	2g\	-a	.	2b-\	-sis	-a	8c/L	.	8g\L	.	8ee\L	.	8bb-\L	.
.	.	.	16cc 16g\	.	.	.	.	.	.	.	.	.	.	.	.	.	.	.	.	.	.	.	.
8G\	3	.	16cc 16g\	.	8gg\sS	8G\	.	.	.	.	.	.	.	.	.	8c/	.	8g\	.	8ee\	.	8bb-\	.
.	.	.	16ccJJ 16g\	.	.	.	.	.	.	.	.	.	.	.	.	.	.	.	.	.	.	.	.
8E\	3	.	16eLL 16G/	.	8r	8E\	.	.	.	.	.	.	.	.	.	8c/	.	8g\	.	8ee\	.	8bb-\	.
.	.	.	16e 16G/	.	.	.	.	.	.	.	.	.	.	.	.	.	.	.	.	.	.	.	.
8C\J	3	.	16e 16G/	.	8bb-\sS	8C\J	.	.	.	.	.	.	.	.	.	8c/J	.	8g\J	.	8ee\J	.	8bb-\J	.
.	.	.	16eJJ 16G/	.	.	.	.	.	.	.	.	.	.	.	.	.	.	.	.	.	.	.	.
*	*	*	*Xtremolo	*	*	*	*	*	*	*	*	*	*	*	*	*Xtremolo	*	*Xtremolo	*	*Xtremolo	*	*Xtremolo	*
!	!	!	!LO:LB:g=original	!	!	!	!	!	!	!	!	!	!	!	!	!	!	!	!	!	!	!LO:LB:g=original	!
=23	=23	=23	=23	=23	=23	=23	=23	=23	=23	=23	=23	=23	=23	=23	=23	=23	=23	=23	=23	=23	=23	=23	=23
*tremolo	*	*	*	*	*	*	*	*	*	*	*	*	*	*	*	*	*	*	*	*	*	*	*
!LO:TX:b:i:t=Tasto	!	!	!	!	!	!	!	!	!	!	!	!	!	!	!	!	!	!	!	!	!	!	!
8F\L	.	.	8f/L	.	8a'\L	4F\	O-	.	2ryy	8f\L	glo-	.	8a\L	O-	glo-	2A/	.	2f\	.	8a\L	.	8ff\L	.
8F\	.	.	8g/	.	8b-'\	.	.	.	.	8g\	.	.	8b-\J	.	.	.	.	.	.	8b-\	.	8gg\	.
8F\	.	.	8g#X/	.	8bn'\	4F\	-san-	.	.	8g#X\	.	.	8bn\L	-san-	.	.	.	.	.	8bn\	.	8gg#X\	.
8F\J	.	.	8a/J	.	8cc'\J	.	.	.	.	8a\J	.	.	8cc\J	.	.	.	.	.	.	8cc\J	.	8aa\J	.
!	!	!	!	!	!	!LO:LB:g=original	!	!	!	!	!	!	!	!	!	!	!	!	!	!	!	!	!
=24	=24	=24	=24	=24	=24	=24	=24	=24	=24	=24	=24	=24	=24	=24	=24	=24	=24	=24	=24	=24	=24	=24	=24
*	*	*	*	*	*	*	*	*	*	*	*	*	*	*	*	*tremolo	*	*tremolo	*	*	*	*	*
8F\L	.	.	8b-/L	.	8dd'\L	4F\	-na	.	2ryy	8b-\L	-ri-	.	8dd\L	-na	-ri-	8A/L	.	8f\L	.	8ddn\L	.	8bb-\L	.
8F\	.	.	8a/	.	8cc'\	.	.	.	.	8a\J	.	.	8cc\J	.	.	8A/	.	8f\	.	8cc\	.	8aa\	.
8F\	.	.	8g#X/	.	8bn'\	4F\	in	.	.	8g#X\L	-a	.	8bn\L	in	-a	8A/	.	8f\	.	8bn\	.	8gg#X\	.
8F\J	.	.	8a/J	.	8cc'\J	.	.	.	.	8a\J	.	.	8cc\J	.	.	8A/J	.	8f\J	.	8cc\J	.	8aa\J	.
*Xtremolo	*	*	*	*	*	*	*	*	*	*	*	*	*	*	*	*Xtremolo	*	*Xtremolo	*	*	*	*	*
!	!	!	!	!	!LO:LB:g=original	!	!	!	!	!	!	!	!	!	!	!	!	!	!	!	!	!	!
=25	=25	=25	=25	=25	=25	=25	=25	=25	=25	=25	=25	=25	=25	=25	=25	=25	=25	=25	=25	=25	=25	=25	=25
*	*	*	*tremolo	*	*	*	*	*	*	*	*	*	*	*	*	*	*	*	*	*	*	*	*
!	!	!	!	!	!LO:TX:t=P:problem:2 skreślone takty	!	!	!	!	!	!	!	!	!	!	!	!	!	!	!	!	!	!
8C\L	3	.	16g/LL	.	8r	8C\L	ex-	.	2ryy	2g\	tu-	.	4b-\	ex-	tu-	2c/	.	2g\	.	4ee\	.	4gg\	.
.	.	.	16g/	.	.	.	.	.	.	.	.	.	.	.	.	.	.	.	.	.	.	.	.
8D\	3	.	16g/	.	8b-\sS	8D\J	.	.	.	.	.	.	.	.	.	.	.	.	.	.	.	.	.
.	.	.	16g/JJ	.	.	.	.	.	.	.	.	.	.	.	.	.	.	.	.	.	.	.	.
8E\	3	.	16b-LL 16g/	.	8r	8E\L	-cel-	.	.	.	.	.	4b-\	-cel-	.	.	.	.	.	4ee\	.	4bb-\	.
.	.	.	16b- 16g/	.	.	.	.	.	.	.	.	.	.	.	.	.	.	.	.	.	.	.	.
8F\J	3	.	16b- 16g/	.	8ee\sS	8F\J	.	.	.	.	.	.	.	.	.	.	.	.	.	.	.	.	.
.	.	.	16b-JJ 16g/	.	.	.	.	.	.	.	.	.	.	.	.	.	.	.	.	.	.	.	.
!	!	!	!	!	!	!	!	!	!	!	!	!	!	!	!	!	!	!	!	!LO:LB:g=original	!	!	!
=26	=26	=26	=26	=26	=26	=26	=26	=26	=26	=26	=26	=26	=26	=26	=26	=26	=26	=26	=26	=26	=26	=26	=26
*	*	*	*	*	*	*	*	*	*	*	*	*	*	*	*	*tremolo	*	*tremolo	*	*tremolo	*	*tremolo	*
8F#X\L	3	.	16ccLL 16e/	.	8r	8F#X\L	-sis	.	2ryy	2g\	-a	.	2b-\	-sis]]	-a	8c/L	.	8g\L	.	8ee\L	.	8bb-\L	.
.	.	.	16cc 16e/	.	.	.	.	.	.	.	.	.	.	.	.	.	.	.	.	.	.	.	.
8G\	3	.	16cc 16e/	.	8gg\sS	8G\	.	.	.	.	.	.	.	.	.	8c/	.	8g\	.	8ee\	.	8bb-\	.
.	.	.	16ccJJ 16e/	.	.	.	.	.	.	.	.	.	.	.	.	.	.	.	.	.	.	.	.
8E\	3	.	4e 4G/	.	8r	8E\	.	.	.	.	.	.	.	.	.	8c/	.	8g\	.	8ee\	.	8bb-\	.
8C\J	3	.	.	.	8bb-\sS	8C\J	.	.	.	.	.	.	.	.	.	8c/J	.	8g\J	.	8ee\J	.	8bb-\J	.
*	*	*	*	*	*	*	*	*	*	*	*	*	*	*	*	*Xtremolo	*	*Xtremolo	*	*Xtremolo	*	*Xtremolo	*
!	!	!	!	!	!	!	!	!	!	!	!	!	!LO:LB:g=original	!	!	!	!	!	!	!	!	!	!
=27	=27	=27	=27	=27	=27	=27	=27	=27	=27	=27	=27	=27	=27	=27	=27	=27	=27	=27	=27	=27	=27	=27	=27
*	*	*	*	*	*2\right	*	*	*	*	*	*	*	*	*	*	*	*	*	*	*	*	*	*
*	*	*	*	*	*tremolo	*	*	*	*	*	*	*	*	*	*	*	*	*	*	*	*	*	*
!	!	!LO:DY:t=ſf	!	!	!	!	!	!	!	!	!	!	!	!	!	!	!	!	!	!	!	!	!
8F\L	3_	ff	16ffLL 16cc\	f	16aaLL 16a\	8F\L	O-	.	2ryy	2a\	O-	.	2ff\	O-	.	2f\	f	2a/	f	2cc\	.	2aa\	.
.	.	.	16ff 16cc\	.	16aa 16a\	.	.	.	.	.	.	.	.	.	.	.	.	.	.	.	.	.	.
8G\	.	.	16ff 16cc\	.	16aa 16a\	8G\	.	.	.	.	.	.	.	.	.	.	.	.	.	.	.	.	.
.	.	.	16ff 16cc\	.	16aa 16a\	.	.	.	.	.	.	.	.	.	.	.	.	.	.	.	.	.	.
8A\	.	.	16ff 16cc\	.	16aa 16a\	8A\	.	.	.	.	.	.	.	.	.	.	.	.	.	.	.	.	.
.	.	.	16ff 16cc\	.	16aa 16a\	.	.	.	.	.	.	.	.	.	.	.	.	.	.	.	.	.	.
8B-\J	.	.	16ff 16cc\	.	16aa 16a\	8B-\J	.	.	.	.	.	.	.	.	.	.	.	.	.	.	.	.	.
.	.	.	16ffJJ 16cc\	.	16aaJJ 16a\	.	.	.	.	.	.	.	.	.	.	.	.	.	.	.	.	.	.
=28	=28	=28	=28	=28	=28	=28	=28	=28	=28	=28	=28	=28	=28	=28	=28	=28	=28	=28	=28	=28	=28	=28	=28
*	*	*	*	*	*	*	*	*	*	*	*	*	*	*	*	*tremolo	*	*tremolo	*	*tremolo	*	*tremolo	*
8c\L	.	.	16ffLL 16cc\	.	16aaLL 16a\	8c\L	-san-	.	2ryy	4a\	-san-	.	4ff\	-san-	.	8f\L	.	8a\L	.	8cc\L	.	8aa\L	.
.	.	.	16ff 16cc\	.	16aa 16a\	.	.	.	.	.	.	.	.	.	.	.	.	.	.	.	.	.	.
8d\	.	.	16ff 16cc\	.	16aa 16a\	8d\J	.	.	.	.	.	.	.	.	.	8f\	.	8a\	.	8cc\	.	8aa\	.
.	.	.	16ff 16cc\	.	16aa 16a\	.	.	.	.	.	.	.	.	.	.	.	.	.	.	.	.	.	.
8e\	.	.	16ff 16cc\	.	16aa 16a\	8e\L	-na	.	.	4a\	-na	.	4ff\	-na	.	8f\	.	8a\	.	8cc\	.	8aa\	.
.	.	.	16ff 16cc\	.	16aa 16a\	.	.	.	.	.	.	.	.	.	.	.	.	.	.	.	.	.	.
8f\J	.	.	16ff 16cc\	.	16aa 16a\	8f\J	.	.	.	.	.	.	.	.	.	8f\J	.	8a\J	.	8cc\J	.	8aa\J	.
.	.	.	16ffJJ 16cc\	.	16aaJJ 16a\	.	.	.	.	.	.	.	.	.	.	.	.	.	.	.	.	.	.
*	*	*	*	*	*	*	*	*	*	*	*	*	*	*	*	*Xtremolo	*	*Xtremolo	*	*Xtremolo	*	*Xtremolo	*
!LO:LB:g=original	!	!	!	!	!	!	!	!	!	!	!	!	!	!	!	!	!	!	!	!	!	!	!
=29	=29	=29	=29	=29	=29	=29	=29	=29	=29	=29	=29	=29	=29	=29	=29	=29	=29	=29	=29	=29	=29	=29	=29
8D\L	5_ 3_	.	16ffLL 16dd\	.	16aaLL 16a\	8D\L	O-	.	2ryy	4a\	in	.	4ff\	in	.	2f\	.	2a/	.	2dd\	.	2aa\	.
.	.	.	16ff 16dd\	.	16aa 16a\	.	.	.	.	.	.	.	.	.	.	.	.	.	.	.	.	.	.
8E\	.	.	16ff 16dd\	.	16aa 16a\	8E\	.	.	.	.	.	.	.	.	.	.	.	.	.	.	.	.	.
.	.	.	16ff 16dd\	.	16aa 16a\	.	.	.	.	.	.	.	.	.	.	.	.	.	.	.	.	.	.
8F\	.	.	16ff 16dd\	.	16aa 16a\	8F\	.	.	.	4a\	ex-	.	4ff\	ex-	.	.	.	.	.	.	.	.	.
.	.	.	16ff 16dd\	.	16aa 16a\	.	.	.	.	.	.	.	.	.	.	.	.	.	.	.	.	.	.
8G\J	.	.	16ff 16dd\	.	16aa 16a\	8G\J	.	.	.	.	.	.	.	.	.	.	.	.	.	.	.	.	.
.	.	.	16ffJJ 16dd\	.	16aaJJ 16a\	.	.	.	.	.	.	.	.	.	.	.	.	.	.	.	.	.	.
=30	=30	=30	=30	=30	=30	=30	=30	=30	=30	=30	=30	=30	=30	=30	=30	=30	=30	=30	=30	=30	=30	=30	=30
*	*	*	*	*	*	*	*	*	*	*	*	*	*	*	*	*tremolo	*	*tremolo	*	*tremolo	*	*tremolo	*
8A\L	.	.	16ffLL 16dd\	.	16aaLL 16a\	8A\L	-san-	.	2ryy	4a\	-cel-	.	4ff\	-cel-	.	8f\L	.	8a\L	.	8dd\L	.	8aa\L	.
.	.	.	16ff 16dd\	.	16aa 16a\	.	.	.	.	.	.	.	.	.	.	.	.	.	.	.	.	.	.
8Bn\	.	.	16ff 16dd\	.	16aa 16a\	8Bn\J	.	.	.	.	.	.	.	.	.	8f\	.	8a\	.	8dd\	.	8aa\	.
.	.	.	16ff 16dd\	.	16aa 16a\	.	.	.	.	.	.	.	.	.	.	.	.	.	.	.	.	.	.
8c#X\	.	.	16ff 16dd\	.	16aa 16a\	8c#X\L	-na	.	.	4a\	-sis	.	4ff\	-sis	.	8f\	.	8a\	.	8dd\	.	8aa\	.
.	.	.	16ff 16dd\	.	16aa 16a\	.	.	.	.	.	.	.	.	.	.	.	.	.	.	.	.	.	.
8d\J	.	.	16ff 16dd\	.	16aa 16a\	8d\J	.	.	.	.	.	.	.	.	.	8f\J	.	8a\J	.	8dd\J	.	8aa\J	.
.	.	.	16ffJJ 16dd\	.	16aaJJ 16a\	.	.	.	.	.	.	.	.	.	.	.	.	.	.	.	.	.	.
*	*	*	*Xtremolo	*	*Xtremolo	*	*	*	*	*	*	*	*	*	*	*Xtremolo	*	*Xtremolo	*	*Xtremolo	*	*Xtremolo	*
!	!	!	!	!	!	!	!	!	!	!LO:LB:g=original	!	!	!	!	!	!	!	!	!	!	!	!	!
=31	=31	=31	=31	=31	=31	=31	=31	=31	=31	=31	=31	=31	=31	=31	=31	=31	=31	=31	=31	=31	=31	=31	=31
8F'\	x	.	8a/	.	16ff\LL	4F\	O-	.	2ryy	8a\	O-	.	16ff\LL	O-	.	8A/	.	8f\	.	8cc\	.	8aa\	.
.	.	.	.	.	16ee\	.	.	.	.	.	.	.	16ee\	.	.	.	.	.	.	.	.	.	.
8r	.	.	8r	.	16dd\	.	.	.	.	8r	.	.	16dd\	.	.	8r	.	8r	.	8r	.	8r	.
.	.	.	.	.	16cc\JJ	.	.	.	.	.	.	.	16cc\JJ	.	.	.	.	.	.	.	.	.	.
8C'>/	.	.	8f/	.	16dd\LL	4C\	-san-	.	.	8cc\	-san-	.	16dd\LL	-san-	.	8c/	.	8cc\	.	8cc\	.	8ccc\	.
.	.	.	.	.	16cc\	.	.	.	.	.	.	.	16cc\	.	.	.	.	.	.	.	.	.	.
8r	.	.	8r	.	16b-\	.	.	.	.	8r	.	.	16b-\	.	.	8r	.	8r	.	8r	.	8r	.
.	.	.	.	.	16a\JJ	.	.	.	.	.	.	.	16a\JJ	.	.	.	.	.	.	.	.	.	.
!	!	!	!	!	!	!LO:LB:g=original	!	!	!	!	!	!	!	!	!	!	!	!	!	!	!	!	!
=32	=32	=32	=32	=32	=32	=32	=32	=32	=32	=32	=32	=32	=32	=32	=32	=32	=32	=32	=32	=32	=32	=32	=32
8AA'>/	.	.	8c/	.	16b-\LL	4AA/	-na	.	2ryy	8a\	-na	.	16b-\LL	-na	.	8A/	.	8a\	.	8a\	.	8aa\	.
.	.	.	.	.	16a\	.	.	.	.	.	.	.	16a\	.	.	.	.	.	.	.	.	.	.
8r	.	.	8r	.	16g\	.	.	.	.	8r	.	.	16g\	.	.	8r	.	8r	.	8r	.	8r	.
.	.	.	.	.	16f\JJ	.	.	.	.	.	.	.	16f\JJ	.	.	.	.	.	.	.	.	.	.
8FF'>/	.	.	8A/	.	16g/LL	4FF/	in	.	.	8f\	in	.	16g/LL	in	.	8F/	.	8f\	.	8f/	.	8ff\	.
.	.	.	.	.	16f/	.	.	.	.	.	.	.	16f/	.	.	.	.	.	.	.	.	.	.
8r	.	.	8r	.	16e/	.	.	.	.	8r	.	.	16e/	.	.	8r	.	8r	.	8r	.	8r	.
.	.	.	.	.	16d/JJ	.	.	.	.	.	.	.	16d/JJ	.	.	.	.	.	.	.	.	.	.
!	!	!	!LO:LB:g=original	!	!	!	!	!	!	!	!	!	!	!	!	!	!	!	!	!	!	!	!
=33	=33	=33	=33	=33	=33	=33	=33	=33	=33	=33	=33	=33	=33	=33	=33	=33	=33	=33	=33	=33	=33	=33	=33
*tremolo	*	*	*	*	*	*	*	*	*	*	*	*	*	*	*	*	*	*	*	*	*	*	*
!	!	!	!	!	!LO:TX:t=P:problem:mixed beam	!	!	!	!	!	!	!	!	!	!	!	!	!	!	!	!	!	!
8C/L	.	.	8c/L	.	8c/L	4C\	ex-	.	2ryy	4g\	ex-	.	4c/	ex-	.	8c/L	.	8g\L	.	8e\L	.	8ee\L	.
8C/	.	.	16b-L 16g/	.	16eeL 16cc\	.	.	.	.	.	.	.	.	.	.	16c/L	.	16g\L	.	16ee\L	.	16bb-\L	.
.	.	.	16b-JJ 16g/	.	16eeJJ 16cc\	.	.	.	.	.	.	.	.	.	.	16c/JJ	.	16g\JJ	.	16ee\JJ	.	16bb-\JJ	.
8C/	.	.	8b-L 8g/	.	8eeL 8cc\	4C\	-cel-	.	.	4b-\	-cel-	.	4ee\	.	.	8c/L	.	8g\L	.	8ee\L	.	8bb-\L	.
8C/J	.	.	8b-J 8g/	.	8eeJ 8cc\	.	.	.	.	.	.	.	.	.	.	8c/J	.	8g\J	.	8ee\J	.	8bb-\J	.
!	!	!	!	!	!LO:LB:g=original	!	!	!	!	!	!	!	!	!	!	!	!	!	!	!	!	!	!
=34	=34	=34	=34	=34	=34	=34	=34	=34	=34	=34	=34	=34	=34	=34	=34	=34	=34	=34	=34	=34	=34	=34	=34
*	*	*	*tremolo	*	*	*	*	*	*	*	*	*	*	*	*	*tremolo	*	*tremolo	*	*tremolo	*	*tremolo	*
!	!	!	!	!	!LO:TX:t=P:problem:mixed beam	!	!	!	!	!	!	!	!	!	!	!	!	!	!	!	!	!	!
8C/L	7 5	.	8b-L 8g/	.	8c/L	2c\	-sis	.	2ryy	2b-\	-sis	.	2ee\	-cel	.	8c/L	.	8g\L	.	8ee\L	.	8bb-\L	.
.	.	.	.	.	8qqff/	.	.	.	.	.	.	.	.	.	.	.	.	.	.	.	.	.	.
8C/	.	.	8b- 8g/	.	8gg\	.	.	.	.	.	.	.	.	.	.	8c/	.	8g\	.	8ee\	.	8bb-\	.
8C/	.	.	8b- 8g/	.	8c/	.	.	.	.	.	.	.	.	.	.	8c/	.	8g\	.	8ee\	.	8bb-\	.
8C/J	.	.	8b-J 8g/	.	8ccc\J	.	.	.	.	.	.	.	.	.	.	8c/J	.	8g\J	.	8ee\J	.	8bb-\J	.
*Xtremolo	*	*	*	*	*	*	*	*	*	*	*	*	*	*	*	*Xtremolo	*	*Xtremolo	*	*Xtremolo	*	*Xtremolo	*
!	!	!	!	!	!	!	!	!	!	!	!	!	!	!	!	!	!	!	!	!	!	!LO:LB:g=original	!
=35	=35	=35	=35	=35	=35	=35	=35	=35	=35	=35	=35	=35	=35	=35	=35	=35	=35	=35	=35	=35	=35	=35	=35
*	*	*	*	*	*tremolo	*	*	*	*	*	*	*	*	*	*	*	*	*	*	*	*	*	*
!	!	!	!	!	!LO:TX:t=P:problem:takty nr 27-34 zapisane repetycją	!	!	!	!	!	!	!	!LO:TX:t=P:problem:takty nr 27-34 zapisane repetycją	!	!	!LO:TX:t=P:problem:takty nr 27-34 zapisane repetycją	!	!LO:TX:t=P:problem:takty nr 27-34 zapisane repetycją	!	!	!	!	!
8F\L	3_	.	16ffLL 16cc\	.	16aaLLyy 16a\yy	8F\L	O-	.	2ryy	[4a\	O-	.	2ff\yy	O-	.	2f\yy	.	2a/yy	.	2cc\	.	2aa\	.
.	.	.	16ff 16cc\	.	16aayy 16a\yy	.	.	.	.	.	.	.	.	.	.	.	.	.	.	.	.	.	.
8G\	.	.	16ff 16cc\	.	16aayy 16a\yy	8G\	.	.	.	.	.	.	.	.	.	.	.	.	.	.	.	.	.
.	.	.	16ff 16cc\	.	16aayy 16a\yy	.	.	.	.	.	.	.	.	.	.	.	.	.	.	.	.	.	.
8A\	.	.	16ff 16cc\	.	16aayy 16a\yy	8A\	.	.	.	4a\]	.	.	.	.	.	.	.	.	.	.	.	.	.
.	.	.	16ff 16cc\	.	16aayy 16a\yy	.	.	.	.	.	.	.	.	.	.	.	.	.	.	.	.	.	.
8B-\J	.	.	16ff 16cc\	.	16aayy 16a\yy	8B-\J	.	.	.	.	.	.	.	.	.	.	.	.	.	.	.	.	.
.	.	.	16ffJJ 16cc\	.	16aaJJyy 16a\yy	.	.	.	.	.	.	.	.	.	.	.	.	.	.	.	.	.	.
=36	=36	=36	=36	=36	=36	=36	=36	=36	=36	=36	=36	=36	=36	=36	=36	=36	=36	=36	=36	=36	=36	=36	=36
*	*	*	*	*	*	*	*	*	*	*	*	*	*	*	*	*tremolo	*	*tremolo	*	*tremolo	*	*tremolo	*
8c\L	.	.	16ffLL 16cc\	.	16aaLLyy 16a\yy	8c\L	-ſan-	.	2ryy	4a\	-san-	.	4ff\yy	-san-	.	8f\Lyy	.	8a\Lyy	.	8cc\L	.	8aa\L	.
.	.	.	16ff 16cc\	.	16aayy 16a\yy	.	.	.	.	.	.	.	.	.	.	.	.	.	.	.	.	.	.
8d\	.	.	16ff 16cc\	.	16aayy 16a\yy	8d\J	.	.	.	.	.	.	.	.	.	8f\yy	.	8a\yy	.	8cc\	.	8aa\	.
.	.	.	16ff 16cc\	.	16aayy 16a\yy	.	.	.	.	.	.	.	.	.	.	.	.	.	.	.	.	.	.
8e\	.	.	16ff 16cc\	.	16aayy 16a\yy	8e\L	-na	.	.	4a\	-na	.	4ff\yy	-na	.	8f\yy	.	8a\yy	.	8cc\	.	8aa\	.
.	.	.	16ff 16cc\	.	16aayy 16a\yy	.	.	.	.	.	.	.	.	.	.	.	.	.	.	.	.	.	.
8f\J	.	.	16ff 16cc\	.	16aayy 16a\yy	8f\J	.	.	.	.	.	.	.	.	.	8f\Jyy	.	8a\Jyy	.	8cc\J	.	8aa\J	.
.	.	.	16ffJJ 16cc\	.	16aaJJyy 16a\yy	.	.	.	.	.	.	.	.	.	.	.	.	.	.	.	.	.	.
*	*	*	*	*	*	*	*	*	*	*	*	*	*	*	*	*Xtremolo	*	*Xtremolo	*	*Xtremolo	*	*Xtremolo	*
=37	=37	=37	=37	=37	=37	=37	=37	=37	=37	=37	=37	=37	=37	=37	=37	=37	=37	=37	=37	=37	=37	=37	=37
8D\L	5_ 3_	.	16ffLL 16dd\	.	16aaLLyy 16a\yy	8D\L	O-	.	2ryy	4a\	in	.	4ff\yy	in	.	2f\yy	.	2a/yy	.	2dd\	.	2aa\	.
.	.	.	16ff 16dd\	.	16aayy 16a\yy	.	.	.	.	.	.	.	.	.	.	.	.	.	.	.	.	.	.
8E\	.	.	16ff 16dd\	.	16aayy 16a\yy	8E\	.	.	.	.	.	.	.	.	.	.	.	.	.	.	.	.	.
.	.	.	16ff 16dd\	.	16aayy 16a\yy	.	.	.	.	.	.	.	.	.	.	.	.	.	.	.	.	.	.
8F\	.	.	16ff 16dd\	.	16aayy 16a\yy	8F\	.	.	.	4a\	ex-	.	4ff\yy	ex-	.	.	.	.	.	.	.	.	.
.	.	.	16ff 16dd\	.	16aayy 16a\yy	.	.	.	.	.	.	.	.	.	.	.	.	.	.	.	.	.	.
8G\J	.	.	16ff 16dd\	.	16aayy 16a\yy	8G\J	.	.	.	.	.	.	.	.	.	.	.	.	.	.	.	.	.
.	.	.	16ffJJ 16dd\	.	16aaJJyy 16a\yy	.	.	.	.	.	.	.	.	.	.	.	.	.	.	.	.	.	.
=38	=38	=38	=38	=38	=38	=38	=38	=38	=38	=38	=38	=38	=38	=38	=38	=38	=38	=38	=38	=38	=38	=38	=38
*	*	*	*	*	*	*	*	*	*	*	*	*	*	*	*	*tremolo	*	*tremolo	*	*tremolo	*	*tremolo	*
8A\L	.	.	16ffLL 16dd\	.	16aaLLyy 16a\yy	8A\L	-san-	.	2ryy	4a\	-cel-	.	4ff\yy	-cel-	.	8f\Lyy	.	8a\Lyy	.	8dd\L	.	8aa\L	.
.	.	.	16ff 16dd\	.	16aayy 16a\yy	.	.	.	.	.	.	.	.	.	.	.	.	.	.	.	.	.	.
8Bn\	.	.	16ff 16dd\	.	16aayy 16a\yy	8Bn\	.	.	.	.	.	.	.	.	.	8f\yy	.	8a\yy	.	8dd\	.	8aa\	.
.	.	.	16ff 16dd\	.	16aayy 16a\yy	.	.	.	.	.	.	.	.	.	.	.	.	.	.	.	.	.	.
8c#X\	.	.	16ff 16dd\	.	16aayy 16a\yy	8c#X\	-na	.	.	4a\	-sis	.	4ff\yy	-sis	.	8f\yy	.	8a\yy	.	8dd\	.	8aa\	.
.	.	.	16ff 16dd\	.	16aayy 16a\yy	.	.	.	.	.	.	.	.	.	.	.	.	.	.	.	.	.	.
8d\J	.	.	16ff 16dd\	.	16aayy 16a\yy	8d\J	.	.	.	.	.	.	.	.	.	8f\Jyy	.	8a\Jyy	.	8dd\J	.	8aa\J	.
.	.	.	16ffJJ 16dd\	.	16aaJJyy 16a\yy	.	.	.	.	.	.	.	.	.	.	.	.	.	.	.	.	.	.
*	*	*	*Xtremolo	*	*Xtremolo	*	*	*	*	*	*	*	*	*	*	*Xtremolo	*	*Xtremolo	*	*Xtremolo	*	*Xtremolo	*
=39	=39	=39	=39	=39	=39	=39	=39	=39	=39	=39	=39	=39	=39	=39	=39	=39	=39	=39	=39	=39	=39	=39	=39
!	!	!	!	!	!	!	!	!	!	!	!	!	!	!	!	!	!	!	!	!LO:TX:t=P:problem:brak taktów nr 39-44	!	!	!
8F'\	x	.	8a/	.	16ff\LLyy	4F\	in	.	2ryy	8a\	O-	.	16ff\LLyy	O-	.	8A/yy	.	8f\yy	.	2ryy	.	8aa\	.
.	.	.	.	.	16ee\yy	.	.	.	.	.	.	.	16ee\yy	.	.	.	.	.	.	.	.	.	.
8r	.	.	8r	.	16dd\yy	.	.	.	.	8r	.	.	16dd\yy	.	.	8ryy	.	8ryy	.	.	.	8r	.
.	.	.	.	.	16cc\JJyy	.	.	.	.	.	.	.	16cc\JJyy	.	.	.	.	.	.	.	.	.	.
8C'>/	.	.	8f/	.	16dd\LLyy	4C\	ex-	.	.	8cc\	-san-	.	16dd\LLyy	-san-	.	8c/yy	.	8cc\yy	.	.	.	8ccc\	.
.	.	.	.	.	16cc\yy	.	.	.	.	.	.	.	16cc\yy	.	.	.	.	.	.	.	.	.	.
8r	.	.	8r	.	16b-\yy	.	.	.	.	8r	.	.	16b-\yy	.	.	8ryy	.	8ryy	.	.	.	8r	.
.	.	.	.	.	16a\JJyy	.	.	.	.	.	.	.	16a\JJyy	.	.	.	.	.	.	.	.	.	.
=40	=40	=40	=40	=40	=40	=40	=40	=40	=40	=40	=40	=40	=40	=40	=40	=40	=40	=40	=40	=40	=40	=40	=40
8AA'>/	.	.	8c/	.	16b-\LLyy	4AA/	-cel-	.	2ryy	8a\	-na	.	16b-\LLyy	-na	.	8A/yy	.	8a\yy	.	2ryy	.	8aa\	.
.	.	.	.	.	16a\yy	.	.	.	.	.	.	.	16a\yy	.	.	.	.	.	.	.	.	.	.
8r	.	.	8r	.	16g\yy	.	.	.	.	8r	.	.	16g\yy	.	.	8ryy	.	8ryy	.	.	.	8r	.
.	.	.	.	.	16f\JJyy	.	.	.	.	.	.	.	16f\JJyy	.	.	.	.	.	.	.	.	.	.
8FF'>/	.	.	8G/	.	16g/LLyy	4FF/	-sis	.	.	8f\	in	.	16g/LLyy	in	.	8F/yy	.	8f\yy	.	.	.	8ff\	.
.	.	.	.	.	16f/yy	.	.	.	.	.	.	.	16f/yy	.	.	.	.	.	.	.	.	.	.
8r	.	.	8r	.	16e/yy	.	.	.	.	8r	.	.	16e/yy	.	.	8ryy	.	8ryy	.	.	.	8r	.
.	.	.	.	.	16d/JJyy	.	.	.	.	.	.	.	16d/JJyy	.	.	.	.	.	.	.	.	.	.
!	!	!	!	!	!	!	!	!	!	!LO:LB:g=original	!	!	!	!	!	!	!	!	!	!	!	!	!
=41	=41	=41	=41	=41	=41	=41	=41	=41	=41	=41	=41	=41	=41	=41	=41	=41	=41	=41	=41	=41	=41	=41	=41
*tremolo	*	*	*	*	*	*	*	*	*	*	*	*	*	*	*	*	*	*	*	*	*	*	*
!	!	!	!	!	!LO:TX:t=P:problem:mixed beam	!	!	!	!	!	!	!	!	!	!	!	!	!	!	!	!	!	!
8C/L	8	.	8c/L	.	8c/Lyy	4C/	in	.	2ryy	(4g\	ex-	.	4c/yy	ex-	.	8c/Lyy	.	8g\Lyy	.	2ryy	.	8ee\L	.
8C/	.	.	16b-L 16g/	.	16eeLyy 16cc\yy	.	.	.	.	.	.	.	.	.	.	16c/Lyy	.	16g\Lyy	.	.	.	16bb-\L	.
.	.	.	16b-JJ 16g/	.	16eeJJyy 16cc\yy	.	.	.	.	.	.	.	.	.	.	16c/JJyy	.	16g\JJ	.	.	.	16bb-\JJ	.
8C/	.	.	8b-L 8g/	.	8eeLyy 8cc\yy	4C/	ex-	.	.	4b-\)	.	.	4ee\yy	.	.	8c/Lyy	.	8g\Lyy	.	.	.	8bb-\L	.
8C/J	.	.	8b-J 8g/	.	8eeJyy 8cc\yy	.	.	.	.	.	.	.	.	.	.	8c/Jyy	.	8g\Jyy	.	.	.	8bb-\J	.
!	!	!	!	!	!	!LO:LB:g=original	!	!	!	!	!	!	!	!	!	!	!	!	!	!	!	!	!
=42	=42	=42	=42	=42	=42	=42	=42	=42	=42	=42	=42	=42	=42	=42	=42	=42	=42	=42	=42	=42	=42	=42	=42
*	*	*	*tremolo	*	*	*	*	*	*	*	*	*	*	*	*	*tremolo	*	*tremolo	*	*	*	*tremolo	*
!	!	!	!	!	!LO:TX:t=P:problem:mixed beam	!	!	!	!	!	!	!	!	!	!	!	!	!	!	!	!	!	!
8C/L	7 5	.	8b-L 8g/	.	8c/Lyy	2c\	-cel-	.	2ryy	2b-\	-cel-	.	2ee\yy	-cel-	.	8c/Lyy	.	8g\Lyy	.	2ryy	.	8bb-\L	.
.	.	.	.	.	8qqff/yy	.	.	.	.	.	.	.	.	.	.	.	.	.	.	.	.	.	.
8C/	.	.	8b- 8g/	.	8gg\yy	.	.	.	.	.	.	.	.	.	.	8c/yy	.	8g\yy	.	.	.	8bb-\	.
8C/	.	.	8b- 8g/	.	8c/yy	.	.	.	.	.	.	.	.	.	.	8c/yy	.	8g\yy	.	.	.	8bb-\	.
8C/J	.	.	8b-J 8g/	.	8ccc\Jyy	.	.	.	.	.	.	.	.	.	.	8c/Jyy	.	8g\Jyy	.	.	.	8bb-\J	.
*Xtremolo	*	*	*Xtremolo	*	*	*	*	*	*	*	*	*	*	*	*	*Xtremolo	*	*Xtremolo	*	*	*	*Xtremolo	*
!	!	!	!LO:LB:g=original	!	!	!	!	!	!	!	!	!	!	!	!	!	!	!	!	!	!	!	!
=43	=43	=43	=43	=43	=43	=43	=43	=43	=43	=43	=43	=43	=43	=43	=43	=43	=43	=43	=43	=43	=43	=43	=43
8F\	3	.	8a 8f/	.	8ff 8a\	4F\	-sis	.	2ryy	4a\	-sis	.	8ff\	-sis	.	8A/	.	8f\	.	2ryy	.	8aa\	.
8r	.	.	8r	.	8r	.	.	.	.	.	.	.	8r	.	.	8r	.	8r	.	.	.	8r	.
8FF/L	.	.	8.c/L	.	8.fL 8.A/	4r	.	.	.	4r	.	.	4r	.	.	8A/L	.	8f\L	.	.	.	8ff\L	.
8FF/J	.	.	.	.	.	.	.	.	.	.	.	.	.	.	.	8A/J	.	8f\J	.	.	.	8ff\J	.
.	.	.	16c/Jk	.	16fJk 16A/	.	.	.	.	.	.	.	.	.	.	.	.	.	.	.	.	.	.
=44	=44	=44	=44	=44	=44	=44	=44	=44	=44	=44	=44	=44	=44	=44	=44	=44	=44	=44	=44	=44	=44	=44	=44
!	!	!	!	!	!	!LO:TX:t=P:problem:brak taktu nr 44	!	!	!	!LO:TX:t=P:problem:brak taktu nr 44	!	!	!LO:TX:t=P:problem:brak taktu nr 44	!	!	!	!	!	!	!	!	!	!
2FF/	.	.	2c;/	.	2f 2A/	2ryy	.	.	2ryy	2ryy	.	.	2ryy	.	.	2A/	.	2f\	.	2ryy	.	2ff\	.
==	==	==	==	==	==	==	==	==	==	==	==	==	==	==	==	==	==	==	==	==	==	==	==
*-	*-	*-	*-	*-	*-	*-	*-	*-	*-	*-	*-	*-	*-	*-	*-	*-	*-	*-	*-	*-	*-	*-	*-
!!!system-decoration: [(g1)][(g2)][(g3)][(g4)]<s11>
!!!RDF**kern: > = above
!!!RDF**kern: < = below
!!!AIN: 1 alto 1 bass 2 clars 2 cor 1 organ 1 soprn 1 tenor 2 violn
!!!ENC: Andrzej Gręziak
!!!END: 2021-11-21
!!!ENC: Andrzej Kubiczek
!!!END: 2021-12-14
